X:34
T:Since Love. JJo.034
S:J.Jones MS,1801,N.Shrops.
A:N Shropshire
Z:Neil Brookes 2006
M:6/8
L:1/8
Q:3/8=80
K:C
c/d/|ecA GFE|Dddd2e/d/|ecA GEG|Accc2||!
e/d/|ceg ceg|ceg g>fe/d/|ceg ceg|addd2e/d/|!
ceg ceg|cc’a agf|ecA GFE|Dddd2c/d/|!
ecA GEG|Accc2G|FFF EEE|Dfe ed c/d/|ecA GEG|Accc2|]

